X: 42
T:Eddie Kelly's Jig No. 2
M:6/8
L:1/8
R:Double Jig
K:Em
BEF G2A|BAB edc|~B3 GAB|AFD FGA|!
BEF G2A|BAB edc|~B3 GAB|AFD E3:|!
|:g2e fed|Bee Bef|gfe fed|B^cd e2f|!
gfe fed|Bee Bef|gfe fed|1B^cd e3:|2B^cd ed=c|]!
